.local/share/icons/Gruvbox-Plus-Dark/apps/16/coypu.svg

<svg width="16" height="16" version="1.1" xmlns="http://www.w3.org/2000/svg">
  <defs>
    <style id="current-color-scheme" type="text/css">.ColorScheme-Text { color:#ebdbb2; } .ColorScheme-Highlight { color:#458588; }</style>
  </defs>
  <path class="ColorScheme-Text" d="m7.604 4.147s-0.165-1e-3 -0.236 8e-3c-1.619-9e-3 -2.526 1.761-3.323 2.751-0.447 0.734-2.532 2.648-3.893 3.067-0.353 0.07-0.059 0.779 0.552 0.422 0.723-0.267 3.319-2.025 3.389-2.082 0.105-0.067 0.307-0.062 0.394 0.239 0.087 0.302-0.113 0.66-0.113 0.66s-0.263 0.45-0.254 0.697c0.124 0.89 0.841 1.782 1.57 1.904 0.525 0.072 1.301 0.025 1.301 0.025l0.016-0.132c-0.017-0.2-0.427-0.286-0.427-0.286-3e-3 3e-3 -0.522 0.101-0.749-4e-3 -0.383-0.175-0.831-0.864-0.831-0.952 0-0.087 0.129-0.48 0.129-0.48s0.422 0.057 0.562 0.057 0.502 0.018 0.502 0.018l0.271 0.419c0.086 0.165 0.192 0.082 0.333 0.12l0.605 7e-3 0.417-9e-3v-0.213c0 0.213 0-0.202-0.271-0.208-0.234-0.011-0.54-0.041-0.566-0.126-0.043-0.138 0.017-0.5 0.017-0.5s0.302-0.146 0.939-0.02c0.636 0.126 1.361 0.653 1.361 0.653-0.182 0.336-0.349 0.408-0.381 0.753-0.033 0.311-0.033 0.311 0.172 0.311h0.977s0-0.413-0.281-0.392c-0.196-7e-3 -0.306-0.018-0.306-0.035 0-0.079 0.376-0.408 0.376-0.408l0.266-0.192s0.371 0.25 0.849 0.371 1.073 0.063 1.073 0.063c0.187 0.112 0.223 0.205 0.316 0.365 0.073 0.288 0.073 0.229 0.234 0.235 0.353 9e-3 0.651-6e-3 0.995-0.031 0 0 0.028-0.389-0.545-0.389 0 0-0.21-0.132-0.247-0.329-0.038-0.197-0.015-0.713-0.015-0.713l0.283-0.025 0.373 0.319 0.232 0.022 0.322 0.519s0.643 0.047 0.858-0.035c0.215-0.081 0.605-0.299 0.831-0.543 0.225-0.244 0.375-0.821 0.299-1.146s-0.497-0.714-0.497-0.714c-0.891-0.845-2.28-2.258-3.142-2.266-0.137 0-0.479 0.323-0.677 0.18-1.233-0.85-2.582-1.893-4.06-1.954v-1e-3zm6.309 3.549c0.245 0 0.443 0.198 0.443 0.443s-0.198 0.444-0.443 0.444-0.444-0.199-0.444-0.444 0.199-0.443 0.444-0.443z" fill="currentColor"/>
</svg>

<svg xmlns="http://www.w3.org/2000/svg" style="isolation:isolate" width="16" height="16" viewBox="0 0 16 16">
 <defs>
  <style id="current-color-scheme" type="text/css">
   .ColorScheme-Text { color:#ebdbb2; } .ColorScheme-Highlight { color:#458588; }
  </style>
  <linearGradient id="arrongin" x1="0%" x2="0%" y1="0%" y2="100%">
   <stop offset="0%" style="stop-color:#d79921; stop-opacity:1"/>
   <stop offset="100%" style="stop-color:#b57614; stop-opacity:1"/>
  </linearGradient>
  <linearGradient id="aurora" x1="0%" x2="0%" y1="0%" y2="100%">
   <stop offset="0%" style="stop-color:#83a598; stop-opacity:1"/>
   <stop offset="100%" style="stop-color:#b16286; stop-opacity:1"/>
  </linearGradient>
  <linearGradient id="fitdance" x1="0%" x2="0%" y1="0%" y2="100%">
   <stop offset="0%" style="stop-color:#8ec07c; stop-opacity:1"/>
   <stop offset="100%" style="stop-color:#458588; stop-opacity:1"/>
  </linearGradient>
  <linearGradient id="oomox" x1="0%" x2="0%" y1="0%" y2="100%">
   <stop offset="0%" style="stop-color:#458588; stop-opacity:1"/>
   <stop offset="100%" style="stop-color:#928374; stop-opacity:1"/>
  </linearGradient>
  <linearGradient id="rainblue" x1="0%" x2="0%" y1="0%" y2="100%">
   <stop offset="0%" style="stop-color:#b8bb26; stop-opacity:1"/>
   <stop offset="100%" style="stop-color:#076678; stop-opacity:1"/>
  </linearGradient>
  <linearGradient id="sunrise" x1="0%" x2="0%" y1="0%" y2="100%">
   <stop offset="0%" style="stop-color: #fe8019; stop-opacity:1"/>
   <stop offset="100%" style="stop-color: #fabd2f; stop-opacity:1"/>
  </linearGradient>
  <linearGradient id="telinkrin" x1="0%" x2="0%" y1="0%" y2="100%">
   <stop offset="0%" style="stop-color: #83a598; stop-opacity:1"/>
   <stop offset="100%" style="stop-color: #83a598; stop-opacity:1"/>
  </linearGradient>
  <linearGradient id="60spsycho" x1="0%" x2="0%" y1="0%" y2="100%">
   <stop offset="0%" style="stop-color: #fb4934; stop-opacity:1"/>
   <stop offset="25%" style="stop-color: #fabd2f; stop-opacity:1"/>
   <stop offset="50%" style="stop-color: #fe8019; stop-opacity:1"/>
   <stop offset="100%" style="stop-color: #689d6a; stop-opacity:1"/>
  </linearGradient>
  <linearGradient id="90ssummer" x1="0%" x2="0%" y1="0%" y2="100%">
   <stop offset="0%" style="stop-color: #b16286; stop-opacity:1"/>
   <stop offset="20%" style="stop-color: #8ec07c; stop-opacity:1"/>
   <stop offset="50%" style="stop-color: #fabd2f; stop-opacity:1"/>
   <stop offset="100%" style="stop-color: #458588; stop-opacity:1"/>
  </linearGradient>
  <linearGradient id="cyberneon" x1="0%" x2="0%" y1="0%" y2="100%">
    <stop offset="0" style="stop-color:#83a598; stop-opacity:1"/>
    <stop offset="1" style="stop-color:#b16286; stop-opacity:1"/>
  </linearGradient>
 </defs>
 <path style="fill:currentColor" class="ColorScheme-Text" fill-rule="evenodd" d="M 7.604 4.147 C 7.604 4.147 7.439 4.146 7.368 4.155 C 5.749 4.146 4.842 5.916 4.045 6.906 C 3.598 7.64 1.513 9.554 0.152 9.973 C -0.201 10.043 0.093 10.752 0.704 10.395 C 1.427 10.128 4.023 8.37 4.093 8.313 C 4.198 8.246 4.4 8.251 4.487 8.552 C 4.574 8.854 4.374 9.212 4.374 9.212 C 4.374 9.212 4.111 9.662 4.12 9.909 C 4.244 10.799 4.961 11.691 5.69 11.813 C 6.215 11.885 6.991 11.838 6.991 11.838 L 7.007 11.706 C 6.99 11.506 6.58 11.42 6.58 11.42 C 6.577 11.423 6.058 11.521 5.831 11.416 C 5.448 11.241 5 10.552 5 10.464 C 5 10.377 5.129 9.984 5.129 9.984 C 5.129 9.984 5.551 10.041 5.691 10.041 C 5.831 10.041 6.193 10.059 6.193 10.059 L 6.464 10.478 C 6.55 10.643 6.656 10.56 6.797 10.598 L 7.402 10.605 L 7.819 10.596 L 7.819 10.383 C 7.819 10.596 7.819 10.181 7.548 10.175 C 7.314 10.164 7.008 10.134 6.982 10.049 C 6.939 9.911 6.999 9.549 6.999 9.549 C 6.999 9.549 7.301 9.403 7.938 9.529 C 8.574 9.655 9.299 10.182 9.299 10.182 C 9.117 10.518 8.95 10.59 8.918 10.935 C 8.885 11.246 8.885 11.246 9.09 11.246 L 10.067 11.246 C 10.067 11.246 10.067 10.833 9.786 10.854 C 9.59 10.847 9.48 10.836 9.48 10.819 C 9.48 10.74 9.856 10.411 9.856 10.411 L 10.122 10.219 C 10.122 10.219 10.493 10.469 10.971 10.59 C 11.449 10.711 12.044 10.653 12.044 10.653 C 12.231 10.765 12.267 10.858 12.36 11.018 C 12.433 11.306 12.433 11.247 12.594 11.253 C 12.947 11.262 13.245 11.247 13.589 11.222 C 13.589 11.222 13.617 10.833 13.044 10.833 C 13.044 10.833 12.834 10.701 12.797 10.504 C 12.759 10.307 12.782 9.791 12.782 9.791 L 13.065 9.766 L 13.438 10.085 L 13.67 10.107 L 13.992 10.626 C 13.992 10.626 14.635 10.673 14.85 10.591 C 15.065 10.51 15.455 10.292 15.681 10.048 C 15.906 9.804 16.056 9.227 15.98 8.902 C 15.904 8.577 15.483 8.188 15.483 8.188 C 14.592 7.343 13.203 5.93 12.341 5.922 C 12.204 5.922 11.862 6.245 11.664 6.102 C 10.431 5.252 9.082 4.209 7.604 4.148 L 7.604 4.147 Z M 13.913 7.696 C 14.158 7.696 14.356 7.894 14.356 8.139 C 14.356 8.384 14.158 8.583 13.913 8.583 C 13.668 8.583 13.469 8.384 13.469 8.139 C 13.469 7.894 13.668 7.696 13.913 7.696 Z"/>
</svg>
